X:77
T:Road To Lisdoonvarna, The
S:The Session: https://thesession.org/tunes/250#setting250
S:https://JamBuddy.live 2025
C:Traditional
R:slide
K:E
M:4/4
L:1/8
Q:150
|: E2B B2A B2c d2A| F2A ABA D2E FED| ! E2B B2A B2c d3| cdc B2A B2E E3:|
! |: e2f gfe d2B Bcd| c2A ABc d2B B3| ! e2f gfe d2B Bcd| cdc B2A B2E E3:|

